assets/images/misc/5acfec2b-394c-4342-a7b1-c2e85337d220.svg

<svg xmlns="http://www.w3.org/2000/svg" width="27" height="26" fill="none" viewBox="0 0 27 26"><path fill="url(#paint0_linear_746_522)" d="M23.598 11.1271C23.598 11.1271 19.9782 14.4607 20.3879 24.2122H7.27512C7.27512 24.2122 7.47997 17.2115 3.24561 12.2939C3.24561 12.2939 7.75327 12.8356 11.3046 20.4613C11.3046 20.4613 11.7143 7.37622 19.2273 1.45898C19.2273 1.45898 15.9492 9.62644 17.0419 16.5443C17.0419 16.5443 18.954 12.6272 23.5985 11.1271H23.598Z"/><path fill="url(#paint1_linear_746_522)" d="M7.80078 4.5376C7.80078 4.5376 10.7933 8.09617 11.3613 14.8006C11.3613 14.8006 11.6576 12.8993 12.5266 10.5824C12.5266 10.5824 11.6433 7.85418 7.80129 4.5376H7.80078Z"/><defs><linearGradient id="paint0_linear_746_522" x1="8.822" x2="22.102" y1="7.952" y2="23.114" gradientUnits="userSpaceOnUse"><stop stop-color="#CCE18F"/><stop offset="1" stop-color="#90C254"/></linearGradient><linearGradient id="paint1_linear_746_522" x1="9.707" x2="11.935" y1="8.777" y2="12.691" gradientUnits="userSpaceOnUse"><stop stop-color="#CCE18F"/><stop offset=".27" stop-color="#C1DB84"/><stop offset=".73" stop-color="#A3CC67"/><stop offset="1" stop-color="#90C254"/></linearGradient></defs></svg>

<svg xmlns="http://www.w3.org/2000/svg" width="27" height="26" fill="none" viewBox="0 0 27 26"><path fill="url(#a)" d="M23.598 11.127s-3.62 3.334-3.21 13.085H7.275s.205-7-4.03-11.918c0 0 4.508.542 8.06 8.167 0 0 .41-13.085 7.922-19.002 0 0-3.278 8.167-2.185 15.085 0 0 1.912-3.917 6.557-5.417z"/><path fill="url(#b)" d="M7.8 4.538s2.993 3.558 3.561 10.263c0 0 .297-1.902 1.166-4.219 0 0-.884-2.728-4.726-6.044"/><defs><linearGradient id="a" x1="8.822" x2="22.102" y1="7.952" y2="23.114" gradientUnits="userSpaceOnUse"><stop stop-color="#CCE18F"/><stop offset="1" stop-color="#90C254"/></linearGradient><linearGradient id="b" x1="9.707" x2="11.935" y1="8.777" y2="12.691" gradientUnits="userSpaceOnUse"><stop stop-color="#CCE18F"/><stop offset=".27" stop-color="#C1DB84"/><stop offset=".73" stop-color="#A3CC67"/><stop offset="1" stop-color="#90C254"/></linearGradient></defs></svg>
